X:1
T:O Logie O Buchan
M:3/4
L:1/4
K:A
E/2-D/2| C3/2 D/2 E| E c B| A F F| F2 E/2D/2| C/2C/2 D E| E A B/2B/2|\
 c A A| A2A/2-B/2| c B c| e c B| A F A| A2 A/2B/2| c/2c/2 d c| B A B|\
 c A F| F2 E/2D/2| C3/2 D/2 E| E c B| A F F| F2 E/2D/2| C3/2 D/2 E|\
 E A B| c A A| A2A/2-B/2| c3/2 B/2 c| e c B| A/2A/2 F G| A2A/2-B/2|\
 c3/2 d/2 c| B A B| c A F| F2||
